Sweet-Rainbow/icons/vlc.svg

<?xml version="1.0" encoding="UTF-8" standalone="no"?>
<!-- Generator: Gravit.io -->

<svg
   xmlns:dc="http://purl.org/dc/elements/1.1/"
   xmlns:cc="http://creativecommons.org/ns#"
   xmlns:rdf="http://www.w3.org/1999/02/22-rdf-syntax-ns#"
   xmlns:svg="http://www.w3.org/2000/svg"
   xmlns="http://www.w3.org/2000/svg"
   xmlns:sodipodi="http://sodipodi.sourceforge.net/DTD/sodipodi-0.dtd"
   xmlns:inkscape="http://www.inkscape.org/namespaces/inkscape"
   style="isolation:isolate"
   viewBox="0 0 36 36"
   width="48"
   height="48"
   version="1.1"
   id="svg27"
   sodipodi:docname="vlc.svg"
   inkscape:version="0.92.4 (5da689c313, 2019-01-14)">
  <metadata
     id="metadata31">
    <rdf:RDF>
      <cc:Work
         rdf:about="">
        <dc:format>image/svg+xml</dc:format>
        <dc:type
           rdf:resource="http://purl.org/dc/dcmitype/StillImage" />
        <dc:title></dc:title>
      </cc:Work>
    </rdf:RDF>
  </metadata>
  <sodipodi:namedview
     pagecolor="#ffffff"
     bordercolor="#666666"
     borderopacity="1"
     objecttolerance="10"
     gridtolerance="10"
     guidetolerance="10"
     inkscape:pageopacity="0"
     inkscape:pageshadow="2"
     inkscape:window-width="640"
     inkscape:window-height="480"
     id="namedview29"
     showgrid="false"
     inkscape:zoom="29.365243"
     inkscape:cx="25.325443"
     inkscape:cy="32"
     inkscape:current-layer="svg27"
     units="px" />
  <defs
     id="defs7">
    <linearGradient
       id="_lgradient_15"
       x1="4.6368599"
       y1="78.804405"
       x2="13.013324"
       y2="82.681892"
       gradientTransform="scale(2.3075962,0.43335139)"
       gradientUnits="userSpaceOnUse">
      <stop
         offset="0%"
         style="stop-color:#FF416C"
         id="stop2" />
      <stop
         offset="84.34782608695653%"
         style="stop-color:#FF4B2B"
         id="stop4" />
    </linearGradient>
  </defs>
  <defs
     id="defs16">
    <linearGradient
       id="_lgradient_16"
       x1="7.2457366"
       y1="45.794376"
       x2="14.109131"
       y2="48.971455"
       gradientTransform="scale(1.890767,0.52888589)"
       gradientUnits="userSpaceOnUse">
      <stop
         offset="0%"
         style="stop-color:#FF416C"
         id="stop11" />
      <stop
         offset="84.34782608695653%"
         style="stop-color:#FF4B2B"
         id="stop13" />
    </linearGradient>
  </defs>
  <linearGradient
     id="_lgradient_17"
     x1="0"
     y1="0.5"
     x2="0.90748805"
     y2="0.92007786"
     gradientTransform="matrix(46,0,0,47,1,0.5)"
     gradientUnits="userSpaceOnUse">
    <stop
       offset="0%"
       stop-opacity="1"
       style="stop-color:rgb(255,65,108)"
       id="stop20" />
    <stop
       offset="84.34782608695653%"
       stop-opacity="1"
       style="stop-color:rgb(255,75,43)"
       id="stop22" />
  </linearGradient>
  <g
     id="g841"
     transform="matrix(0.76595745,0,0,0.76595745,-0.3829788,-0.3829788)">
    <path
       id="path9"
       style="fill:url(#_lgradient_15);stroke:none;stroke-miterlimit:10"
       d="m 12.939,32.15 h 16.822 c 1.236,0 2.239,0.896 2.239,2 v 0 c 0,1.104 -1.003,2 -2.239,2 H 12.939 c -1.236,0 -2.239,-0.896 -2.239,-2 v 0 c 0,-1.104 1.003,-2 2.239,-2 z"
       inkscape:connector-curvature="0" />
    <path
       id="path18"
       style="fill:url(#_lgradient_16);stroke:none;stroke-miterlimit:10"
       d="m 15.93,22.22 h 9.84 c 1.231,0 2.23,0.896 2.23,2 v 0 c 0,1.104 -0.999,2 -2.23,2 h -9.84 c -1.231,0 -2.23,-0.896 -2.23,-2 v 0 c 0,-1.104 0.999,-2 2.23,-2 z"
       inkscape:connector-curvature="0" />
    <path
       id="path25"
       d="m 16.93,24.51 -0.256,0.973 c -0.14,0.534 -0.687,0.852 -1.22,0.71 l -0.005,-0.001 c -1.6,-0.426 -2.666,-1.637 -2.379,-2.702 v 0 L 17.934,3.416 C 18.323,1.806 19.984,0.5 21.64,0.5 h 4.73 c 1.656,0 3.337,1.301 3.752,2.904 l 8.537,32.988 c 0.139,0.534 0.699,0.968 1.251,0.968 H 44 c 1.656,0 3,1.344 3,3 v 4.14 c 0,1.656 -1.344,3 -3,3 H 4 c -1.656,0 -3,-1.344 -3,-3 v -4.14 c 0,-1.656 1.344,-3 3,-3 h 4.08 c 0.552,0 1.111,-0.434 1.247,-0.969 L 10.06,33.51 v 0 c 0.276,-1.071 1.802,-1.607 3.406,-1.196 l 0.964,0.246 -0.49,1.93 -1.503,5.901 C 12.301,40.926 11.742,41.36 11.19,41.36 H 6 c -0.552,0 -1,0.448 -1,1 v 0.14 c 0,0.552 0.448,1 1,1 h 36 c 0.552,0 1,-0.448 1,-1 v -0.14 c 0,-0.552 -0.448,-1 -1,-1 h -5.18 c -0.552,0 -1.112,-0.434 -1.251,-0.968 L 26.521,5.468 C 26.382,4.934 25.822,4.5 25.27,4.5 h -2.55 c -0.552,0 -1.104,0.436 -1.233,0.973 z"
       inkscape:connector-curvature="0"
       style="fill:url(#_lgradient_17)" />
  </g>
</svg>

<?xml version="1.0" encoding="UTF-8" standalone="no"?><!-- Generator: Gravit.io --><svg xmlns="http://www.w3.org/2000/svg" xmlns:xlink="http://www.w3.org/1999/xlink" style="isolation:isolate" viewBox="0 0 48 48" width="48pt" height="48pt"><defs><linearGradient id="_lgradient_15" x1="0" y1="0.5" x2="0.9074880558539661" y2="0.9200778838291643"><stop offset="0%" style="stop-color:#FF416C"/><stop offset="84.34782608695653%" style="stop-color:#FF4B2B"/></linearGradient></defs><path d="M 12.939 32.15 L 29.761 32.15 C 30.997 32.15 32 33.046 32 34.15 L 32 34.15 C 32 35.254 30.997 36.15 29.761 36.15 L 12.939 36.15 C 11.703 36.15 10.7 35.254 10.7 34.15 L 10.7 34.15 C 10.7 33.046 11.703 32.15 12.939 32.15 Z" style="stroke:none;fill:url(#_lgradient_15);stroke-miterlimit:10;"/><defs><linearGradient id="_lgradient_16" x1="0" y1="0.5" x2="0.9074880558539661" y2="0.9200778838291643"><stop offset="0%" style="stop-color:#FF416C"/><stop offset="84.34782608695653%" style="stop-color:#FF4B2B"/></linearGradient></defs><path d="M 15.93 22.22 L 25.77 22.22 C 27.001 22.22 28 23.116 28 24.22 L 28 24.22 C 28 25.324 27.001 26.22 25.77 26.22 L 15.93 26.22 C 14.699 26.22 13.7 25.324 13.7 24.22 L 13.7 24.22 C 13.7 23.116 14.699 22.22 15.93 22.22 Z" style="stroke:none;fill:url(#_lgradient_16);stroke-miterlimit:10;"/><linearGradient id="_lgradient_17" x1="0" y1="0.5" x2="0.9074880558539661" y2="0.9200778838291643" gradientTransform="matrix(46,0,0,47,1,0.5)" gradientUnits="userSpaceOnUse"><stop offset="0%" stop-opacity="1" style="stop-color:rgb(255,65,108)"/><stop offset="84.34782608695653%" stop-opacity="1" style="stop-color:rgb(255,75,43)"/></linearGradient><path d=" M 16.93 24.51 L 16.674 25.483 C 16.534 26.017 15.987 26.335 15.454 26.193 L 15.449 26.192 C 13.849 25.766 12.783 24.555 13.07 23.49 L 13.07 23.49 L 17.934 3.416 C 18.323 1.806 19.984 0.5 21.64 0.5 L 26.37 0.5 C 28.026 0.5 29.707 1.801 30.122 3.404 L 38.659 36.392 C 38.798 36.926 39.358 37.36 39.91 37.36 L 44 37.36 C 45.656 37.36 47 38.704 47 40.36 L 47 44.5 C 47 46.156 45.656 47.5 44 47.5 L 4 47.5 C 2.344 47.5 1 46.156 1 44.5 L 1 40.36 C 1 38.704 2.344 37.36 4 37.36 L 8.08 37.36 C 8.632 37.36 9.191 36.926 9.327 36.391 L 10.06 33.51 L 10.06 33.51 C 10.336 32.439 11.862 31.903 13.466 32.314 L 14.43 32.56 L 13.94 34.49 L 12.437 40.391 C 12.301 40.926 11.742 41.36 11.19 41.36 L 6 41.36 C 5.448 41.36 5 41.808 5 42.36 L 5 42.5 C 5 43.052 5.448 43.5 6 43.5 L 42 43.5 C 42.552 43.5 43 43.052 43 42.5 L 43 42.36 C 43 41.808 42.552 41.36 42 41.36 L 36.82 41.36 C 36.268 41.36 35.708 40.926 35.569 40.392 L 26.521 5.468 C 26.382 4.934 25.822 4.5 25.27 4.5 L 22.72 4.5 C 22.168 4.5 21.616 4.936 21.487 5.473 L 16.93 24.51 Z " fill="url(#_lgradient_17)"/></svg>
